src/assets/img/People.svg

<svg width="24" height="24" viewBox="0 0 24 24" fill="none" xmlns="http://www.w3.org/2000/svg">
<path d="M7 18V17C7 14.2386 9.23858 12 12 12M12 12C14.7614 12 17 14.2386 17 17V18M12 12C13.6569 12 15 10.6569 15 9C15 7.34315 13.6569 6 12 6C10.3431 6 9 7.34315 9 9C9 10.6569 10.3431 12 12 12ZM1 18V17C1 15.3431 2.34315 14 4 14M4 14C5.10457 14 6 13.1046 6 12C6 10.8954 5.10457 10 4 10C2.89543 10 2 10.8954 2 12C2 13.1046 2.89543 14 4 14ZM23 18V17C23 15.3431 21.6569 14 20 14M20 14C21.1046 14 22 13.1046 22 12C22 10.8954 21.1046 10 20 10C18.8954 10 18 10.8954 18 12C18 13.1046 18.8954 14 20 14Z" stroke="white" stroke-linecap="round" stroke-linejoin="round"/>
</svg>

<svg xmlns="http://www.w3.org/2000/svg" width="24" height="24" fill="none"><path stroke="#fff" stroke-linecap="round" stroke-linejoin="round" d="M7 18v-1a5 5 0 0 1 5-5m0 0a5 5 0 0 1 5 5v1m-5-6a3 3 0 1 0 0-6 3 3 0 0 0 0 6ZM1 18v-1a3 3 0 0 1 3-3m0 0a2 2 0 1 0 0-4 2 2 0 0 0 0 4Zm19 4v-1a3 3 0 0 0-3-3m0 0a2 2 0 1 0 0-4 2 2 0 0 0 0 4Z"/></svg>
